!!!COM:	Busnoys, Antoine
!!!CDT:	~1430///-1492/11/06
!!!OPR:	Missa L'homme arm&eacute;
!!!ONM:	2
!!!OTL:	Gloria
!!!AGN:	Mass; Gloria
!!!SCT:	Bus1001b
!!!SCA:	Bus1001b
!!!voices:	4
!!!voices-OPR:	4
**kern	**kern	**kern	**kern
*staff4	*staff3	*staff2	*staff1
*Ivox	*Ivox	*Ivox	*Ivox
*I"Contratenor Bassus	*I"Tenor	*I"Contratenor Altus	*I"Superius
*I'Ct	*I'T	*I'Ct	*I'S
*>[A,B,C]	*>[A,B,C]	*>[A,B,C]	*>[A,B,C]
*>A	*>A	*>A	*>A
*clefF4	*clefGv2	*clefGv2	*clefG2
*k[b-]	*k[b-]	*k[b-]	*k[b-]
*M3/1	*M3/1	*M3/1	*M3/1
*met(O.)	*met(O.)	*met(O.)	*met(O.)
*	*rscale:1/2	*	*
!!section: Et in terra pax
!!!OMD: Et in terra pax
=1-	=1-	=1-	=1-
0.r	0.r	0G	[0.g
.	.	1G	.
=2	=2-	=2	=2
0.r	0.r	0c	1g]
.	.	.	1.a
.	.	1c	.
.	.	.	2g
=3	=3-	=3	=3
0.r	0.r	1B-	1g
.	.	1.A	1.cc
.	.	2G	2b-
=4	=4	=4	=4
0.r	0.r	1G	2.b-
.	.	.	4g
.	.	2r	2a
.	.	2G	1g
.	.	2B-	.
.	.	2c	2e
=5	=5-	=5	=5
0.r	0.r	1d	2d
.	.	.	2f
.	.	2B-	2g
.	.	2.c	2.a
.	.	4B-	4b-
.	.	2A	2cc
=6	=6-	=6	=6
1r	0.r	2G	2b-
.	.	2F	2.a
1r	.	2G	.
.	.	.	4g
.	.	2B-	1g
2.c	.	1A	.
.	.	.	2f#i
4d	.	.	.
=7	=7	=7	=7
2e-	0.r	1G	0g
1d	.	.	.
.	.	1r	.
4c	.	.	.
4B-	.	.	.
1A	.	2.c	1r
.	.	4d	.
=8	=8-	=8	=8
2.G	0.r	2e-	0.r
.	.	1d	.
4F	.	.	.
2G	.	.	.
2E	.	4c	.
.	.	4B-	.
2F	.	1A	.
4G	.	.	.
4A	.	.	.
=9	=9-	=9	=9
2.B-	0.r	2.G	0.r
4A	.	4F	.
2B-	.	2G	.
1c	.	2E	.
.	.	2F	.
4B-	.	4G	.
4A	.	4A	.
=10	=10	=10	=10
2G	0.r	2.B-	0.r
2.d	.	.	.
.	.	4A	.
.	.	2B-	.
4c	.	.	.
2.e-i	.	2.c	.
4d	.	4B-	.
2c	.	2A	.
=11	=11-	=11	=11
2B-	0.r	2G	1r
2.A	.	2.c	.
.	.	.	1r
4G	.	4B-	.
1G	.	2G	.
.	.	1A	1cc
2F#i	.	.	.
=12	=12-	=12	=12
1G	0.r	1G	2b-
.	.	.	1dd
1r	.	1F	.
.	.	.	2cc
1c	.	1r	2a
.	.	.	2g
=13	=13	=13	=13
2B-	0.r	0.r	2b-
1d	.	.	4a
.	.	.	4g
.	.	.	2f
2c	.	.	2.a
2A	.	.	.
.	.	.	4g
2G	.	.	2e
=14	=14-	=14	=14
2B-	0.r	0.r	4d
.	.	.	4e
4A	.	.	4f
4G	.	.	4g
2F	.	.	4a
.	.	.	4b-
2.A	.	.	2.cc
4G	.	.	4b-
2E	.	.	2g
=15	=15-	=15	=15
2D	0.r	0.r	2.f
1d	.	.	.
.	.	.	4g
.	.	.	2a
2B-	.	.	1b-
1c	.	.	.
.	.	.	2a
=16	=16	=16	=16
2.B-	0.r	2.G	1b-
4A	.	4A	.
2G	.	2B-	2r
2E	.	1c	2g
1F	.	.	2a
.	.	2A	2cc
=17	=17-	=17	=17
1G	0.r	2G	2b-
.	.	2.B-	2.dd
1r	.	.	.
.	.	4c	4cc
.	.	2.d	4b-
.	.	.	4a
1E-	.	.	2b-
.	.	4B-	.
.	.	2c	4a
.	.	.	4g
=18	=18-	=18	=18
2D	0.r	2d	2f
2E	.	2.c	4g
.	.	.	2a
2F	.	.	.
.	.	4G	4g
2G	.	2B-	2.g
1D	.	1A	.
.	.	.	4f#i
.	.	.	4f#i
.	.	.	4e
=19	=19	=19	=19
2r	0G	1G	1g
2.d	.	.	.
.	.	2r	1r
4c	.	.	.
1B-	.	1d	.
.	1G	.	1b-
4A	.	2e	.
4G	.	.	.
=20	=20-	=20	=20
2F	0c	2.f	2a
1A	.	.	1cc
.	.	4e	.
.	.	2f	.
2G	.	1g	2b-
2E	1c	.	2g
2F	.	2f	2a
=21	=21-	=21	=21
1G	1B-	2d	2b-
.	.	4c	2.g
.	.	4d	.
1r	0A	2e	.
.	.	.	4f
.	.	1c	2.a
1c	.	.	.
.	.	.	4e
.	.	4B-	2f#i
.	.	4A	.
=22	=22	=22	=22
2d	1G	2B-	1g
2.B-	.	1d	.
.	1r	.	2f
4A	.	.	.
2G	.	2B-	1b-
1F	1r	1c	.
.	.	.	2a
=23	=23-	=23	=23
2r	0.r	2B-	2.b-
1B-	.	1d	.
.	.	.	4a
.	.	.	2b-
4A	.	2e	2cc
4G	.	.	.
2F	.	2f	2a
2E	.	2g	4g
.	.	.	4f
=24	=24-	=24	=24
2A	0.r	2c	2e
2B-	.	2.d	1d
1G	.	.	.
.	.	4c	.
.	.	2B-	1g
1D	.	1A	.
.	.	.	2f#i
=25	=25	=25	=25
1G	1d	2G	1g
.	.	2B-	.
2F	1d	2A	1r
2D	.	1d	.
1E	1G	.	1g
.	.	2c#i	.
=26	=26-	=26	=26
0D	1r	2.d	2f
.	.	.	2g
.	.	4e	.
.	1d	1f	1a
1r	1d	[1B-	2.b-
.	.	.	4a
=27	=27-	=27	=27
1BB-	1d	2B-]	2g
.	.	2A	2f
2.C	0c	1G	2.e
4D	.	.	4f
2E	.	1r	2g
2F	.	.	2a
=28	=28	=28	=28
2G	1B-	1r	2b-
2E	.	.	2g
2.F	0A	1r	4a
.	.	.	4g
.	.	.	4f#i
4G	.	.	4e
1D	.	1d	1f#i
=29	=29-	=29	=29
1E-i	[y0.G	1B-	1g
2C	.	1c	1r
1C	.	.	.
.	.	1d	1dd
2BBni	.	.	.
=30	=30-	=30	=30
1C	0.G]	2c	1ee-i
.	.	2.g	.
1r	.	.	2dd
.	.	4f	.
.	.	2e	1cc
1r	.	1d	.
.	.	.	2bni
=31	=31	=31	=31
1.C	0.r	2.c	1.cc
.	.	4d	.
.	.	2e	.
2D	.	1f	2a
1BB-	.	.	4b-
.	.	.	4a
.	.	2d	4g
.	.	.	4f
=32	=32-	=32	=32
1.C	0.r	2c	2.e
.	.	1g	.
.	.	.	4d
.	.	.	2e
2D	.	2f	2f
2E	.	2e	2g
[2F	.	2d	[2a
=33	=33-	=33	=33
2F]	0.r	2c	2a]
2.G	.	2B-	1b-
.	.	2G	.
4F	.	.	.
2G	.	2B-	2g
2A	.	1A	2f
2F	.	.	2cc
=34	=34	=34	=34
2G	1d	2G	2b-
2A	.	2F	2.a
2F	1d	2A	.
.	.	.	4g
2G	.	2B-	1g
1D	1d	1A	.
.	.	.	2f#i
=35	=35-	=35	=35
2G	[y0.G	1r	0g
2B-	.	.	.
2c	.	2r	.
1d	.	2G	.
.	.	2B-	1r
2e	.	2c	.
=36	=36-	=36	=36
2d	0.G]	2d	1r
2.g	.	2e	.
.	.	2d	1.b-
4f	.	.	.
4e	.	2.g	.
4d	.	.	.
2.d	.	.	.
.	.	4f	.
.	.	4e	2cc
4c	.	4d	.
=37	=37	=37	=37
2B-	0.r	2.d	1dd
1G	.	.	.
.	.	4c	.
.	.	2.B-	2dd
2B-	.	.	1dd
.	.	8AL	.
.	.	8GJ	.
2.A	.	2.F	.
.	.	.	2cc
4G	.	4E	.
=38	=38-	=38	=38
1G	0.r	2G	2b-
.	.	2B-	4a
.	.	.	4g
2c	.	2A	2f
2B-	.	2G	2g
2G	.	2.d	2b-
2F	.	.	2a
.	.	4c	.
=39	=39-	=39	=39
2B-	0.r	2B-	2dd
2c	.	2A	2cc
2d	.	2G	2b-
2e-i	.	1g	2g
1d	.	.	1a
.	.	2f#i	.
=40	=40	=40	=40
1G	0g	1.g	2g
.	.	.	2.b-
2r	.	.	.
.	.	.	4cc
1B-	.	2f	1dd
.	1g	1d	.
2c	.	.	4cc
.	.	.	4b-
=41	=41-	=41	=41
2.d	0f	0.r	2.a
4c	.	.	4b-
2A	.	.	2cc
2.B-	.	.	2.dd
.	1f	.	.
4c	.	.	4cc
2d	.	.	2a
=42	=42-	=42	=42
2B-	0g	1d	1g
1G	.	.	.
.	.	2B-	1r
2C	.	2.c	.
2.E	1g	.	1r
.	.	4B-	.
.	.	4G	.
4F	.	4A	.
=43	=43	=43	=43
2G	0.d	1.B-	1r
1D	.	.	.
.	.	.	1r
1G	.	2G	.
.	.	1A	1a
2F#i	.	.	.
=44	=44-	=44	=44
1G	0.r	2G	1b-
.	.	2d	.
1r	.	2e	2g
.	.	1f	2f
1r	.	.	2a
.	.	2g	2b-
=45	=45-	=45	=45
0.r	0.r	2e	2cc
.	.	2.f	1dd
.	.	4d	.
.	.	2e-i	1b-
.	.	1c	.
.	.	.	2a
=46	=46	=46	=46
0.r	0.r	2B-	2.b-
.	.	2r	.
.	.	.	4a
.	.	2.B-	2g
.	.	.	2f
.	.	4A	.
.	.	2G	2b-
.	.	2F	2a
=47	=47-	=47	=47
0.r	0.r	2B-	2g
.	.	2A	2cc
.	.	2G	2b-
.	.	2c	2a
.	.	2B-	2.dd
.	.	2A	.
.	.	.	4cc
=48	=48-	=48	=48
1r	0.r	2.d	2b-
.	.	.	2.a
.	.	4c	.
1r	.	4B-	.
.	.	4A	4g
.	.	2B-	1g
1c	.	2.A	.
.	.	.	2f#i
.	.	4G	.
=49	=49	=49	=49
1B-	0g	1G	0g
1.E-	.	2r	.
.	.	2G	.
.	1g	2B-	1r
2D	.	2c	.
=50	=50-	=50	=50
1D	0f	2d	1r
.	.	1d	.
1r	.	.	0a
.	.	4c	.
.	.	4B-	.
1D	1f	1A	.
=51	=51-	=51	=51
2.G	0.g	2G	1b-
.	.	2B-	.
4F	.	.	.
2E	.	2c	2g
2C	.	2e	1cc
1G	.	1d	.
.	.	.	2b-
=52	=52	=52	=52
2.C	0.r	1c	2cc
.	.	.	4b-
4D	.	.	4a
2E	.	2r	2g
1F	.	2c	1a
.	.	2A	.
4E	.	2B-	4g
4D	.	.	4f
=53	=53-	=53	=53
2.C	0.r	2c	2.e
.	.	1g	.
4BB-	.	.	4d
2C	.	.	2e
2D	.	2f	1f
1BB-	.	1d	.
.	.	.	2g
=54	=54-	=54	=54
2.C	0.r	1c	2e
.	.	.	2.a
4D	.	.	.
1E-i	.	2B-	.
.	.	.	4g
.	.	2G	2.g
1D	.	1A	.
.	.	.	4f#i
.	.	.	4f#i
.	.	.	4e
=55	=55	=55	=55
!	!LO:N:vis:00	!	!
1r	[0.dl	[0.Gl	[0.gl
1r	.	.	.
1G	.	.	.
=56	=56-	=56	=56
0.Gl	0.d]	0.G]	0.g]
!!LO:LB:i:g=z
*	*rscale:1	*	*
=57||	=57||	=57||	=57||
*>B	*>B	*>B	*>B
*clefF4	*clefGv2	*clefGv2	*clefG2
*k[b-]	*k[b-]	*k[b-]	*k[b-]
*M2/1	*M2/1	*M2/1	*M2/1
*met(O2)	*met(O2)	*met(O2)	*met(O2)
*	*rscale:1/2	*	*
!!section: Qui tollis
!!!OMD: Qui tollis
0r	0r	1.G	0r
.	.	2E	.
=58.	=58.	=58.	=58.
0r	0r	1F	1r
.	.	2.G	[y1g
.	.	4A	.
=59.	=59	=59.	=59.
0r	0r	2.B-	2g]yy
.	.	.	2e
.	.	4c	.
.	.	1A	1f
=60	=60.	=60	=60
0r	0r	1G	2.g
.	.	.	4a
.	.	2r	2.b-
.	.	[y2d	.
.	.	.	4cc
=61.	=61	=61.	=61.
0r	0r	2d]yy	1a
.	.	2c	.
.	.	2B-	2r
.	.	4A	[y2dd
.	.	4G	.
=62.	=62.	=62.	=62.
0r	0r	2.F	2dd]yy
.	.	.	2cc
.	.	4E	.
.	.	2G	2b-
.	.	[2B-	4a
.	.	.	4g
=63	=63	=63	=63
0r	0r	4B-]	1f
.	.	4c	.
.	.	2d	.
.	.	2e-i	2g
.	.	[y2d	[y2b-
=64.	=64.	=64.	=64.
0r	0r	4d]yy	4b-]yy
.	.	4c	4cc
.	.	4B-	2dd
.	.	4A	.
.	.	2c	2ee-i
.	.	2B-	[y2dd
=65.	=65	=65.	=65.
0r	0r	2G	4dd]yy
.	.	.	4cc
.	.	1d	4b-
.	.	.	4a
.	.	.	2b-
.	.	2c	[2a
=66	=66.	=66	=66
0r	0r	2d	4a]
.	.	.	4g
.	.	2B-	1g
.	.	1A	.
.	.	.	2f#i
=67.	=67	=67.	=67.
1d	0r	0G	1g
1e-	.	.	1r
=68.	=68.	=68.	=68.
2d	0r	0r	1dd
2B-	.	.	.
1c	.	.	1ee-
=69	=69	=69	=69
1B-	0r	1d	2dd
.	.	.	2b-
2r	.	1e-	1cc
2A	.	.	.
=70.	=70.	=70.	=70.
2B-	0r	2d	1b-
2G	.	2B-	.
1F	.	1c	2r
.	.	.	2a
=71.	=71	=71.	=71.
1G	0r	2B-	2b-
.	.	1B-	2g
1r	.	.	1f
.	.	2A	.
=72	=72.	=72	=72
1E-i	0r	2B-	1g
.	.	2G	.
2.D	.	2F	1a
.	.	[y2f	.
4C	.	.	.
=73.	=73	=73.	=73.
2D	0r	2f]yy	2dd
4E	.	2e	2cc
4F	.	.	.
2G	.	2d	2b-
2A	.	[y2c	4cc
.	.	.	4b-
=74.	=74.	=74.	=74.
2F	0r	2c]yy	4a
.	.	.	4g
2G	.	2B-	1g
1D	.	1A	.
.	.	.	2f#i
=75	=75	=75	=75
2r	0r	2G	0g
1G	.	2.B-	.
.	.	4A	.
2B-	.	2G	.
=76.	=76.	=76.	=76.
2A	0r	2F	1r
2G	.	1G	.
1A	.	.	1cc
.	.	2F#i	.
=77.	=77	=77.	=77.
1G	0g	1.G	2.b-
.	.	.	4g
1r	.	.	2b-
.	.	2A	2cc
=78	=78.	=78	=78
1.G	[0d	2B-	1dd
.	.	1B-	.
.	.	.	2b-
2A	.	2A	2cc
=79.	=79	=79.	=79.
1B-	0d_	1G	2dd
.	.	.	2b-
2A	.	2F	2cc
2F	.	2A	[y2a
=80.	=80.	=80.	=80.
1G	0d]	2B-	2a]yy
.	.	2G	1g
1D	.	1A	.
.	.	.	2f#i
=81	=81	=81	=81
1.E-i	0r	1G	1g
.	.	[y1g	[y1b-
2E-i	.	.	.
=82.	=82.	=82.	=82.
1E-i	0r	1g]yy	2b-]yy
.	.	.	2cc
1D	.	1f	[y1dd
=83.	=83	=83.	=83.
0r	0g	0e	3dd]yy
.	.	.	3cc#i
.	.	.	3dd
.	.	.	3%2cc#i
.	.	.	3bni
=84	=84.	=84	=84
1.D	[0a	0d	0dd
2E	.	.	.
=85.	=85	=85.	=85.
2.F	0a]	1r	1cc
4G	.	.	.
2.A	.	1f	1a
4B-	.	.	.
=86.	=86.	=86.	=86.
2.c	0g	1e	1r
4d	.	.	.
2e	.	1c	1cc
4d	.	.	.
4e	.	.	.
=87	=87	=87	=87
2f	0f	1d	1a
2.d	.	.	.
.	.	1B-	1b-
4c	.	.	.
2d	.	.	.
=88.	=88.	=88.	=88.
2e	[0e	1c	2g
2.c	.	.	2.cc
.	.	1A	.
4B-	.	.	4dd
[y2A	.	.	[y2ee
=89.	=89	=89.	=89.
2A]yy	0e]	1B-	4ee]yy
.	.	.	4dd
2G	.	.	4cc#i
.	.	.	4bni
1A	.	1A	1cc#i
=90	=90.	=90	=90
1.D	[0d	1F	0dd
.	.	[y1B-	.
[y2G	.	.	.
=91.	=91	=91.	=91.
2G]yy	0d_	2B-]yy	0r
2F	.	2A	.
1B-	.	[y1G	.
=92.	=92.	=92.	=92.
2A	0d]	2G]yy	1r
1A	.	1F#i	.
.	.	.	1a
2G	.	4E	.
.	.	4F#i	.
=93	=93	=93	=93
1.G	0r	1G	1b-
.	.	1r	2a
[y2F#i	.	.	[y2a
=94.	=94.	=94.	=94.
2F#]yy	0r	1c	2a]yy
2E	.	.	2g
1G	.	1B-	1g
=95.	=95	=95.	=95.
1r	0r	2A	1.cc
.	.	1A	.
1F	.	.	.
.	.	2G	4b-
.	.	.	4a
=96	=96.	=96	=96
1.G	0r	1G	2.b-
.	.	.	4cc
.	.	1B-	2b-
2F	.	.	4a
.	.	.	4g
=97.	=97	=97.	=97.
1D	0r	1A	1f
1E	.	1G	[y1g
=98.	=98.	=98.	=98.
0D	0r	0A	2g]yy
.	.	.	1f#i
.	.	.	2e
=99	=99	=99	=99
1r	[y0G	1.B-	0g
1d	.	.	.
.	.	2G	.
=100.	=100.	=100.	=100.
1e-	0G]yy	1G	1r
2d	.	2r	1b-
[y2d	.	[y2G	.
=101.	=101	=101.	=101.
2d]yy	0G	4G]yy	1b-
.	.	4A	.
4c	.	1B-	.
4d	.	.	.
4e-i	.	.	1g
4d	.	.	.
4c	.	4A	.
4B-	.	4G	.
=102	=102.	=102	=102
1A	[0c	1F	1.a
4F	.	1r	.
4G	.	.	.
[y2A	.	.	[y2cc
=103.	=103	=103.	=103.
2A]yy	0c]	1F	2cc]yy
4G	.	.	4b-
4F	.	.	4a
2E	.	2G	2g
[y2F	.	[y2A	2f
=104.	=104.	=104.	=104.
4F]yy	0c	4A]yy	2a
4E	.	4B-	.
2C	.	1c	1g
2E	.	.	.
2F	.	2A	4f
.	.	.	4e
=105	=105	=105	=105
1G	0B-	2.B-	2.d
.	.	4c	4e
2r	.	2d	2f
2E-i	.	2e-i	2g
=106.	=106.	=106.	=106.
2.F	[0A	2c	2.a
.	.	2.f	.
4D	.	.	4f
2.F	.	.	2.a
.	.	4g	.
.	.	[y2a	.
4G	.	.	4b-
=107.	=107	=107.	=107.
2.A	0A]	4a]yy	2cc
.	.	4g	.
.	.	1g	1cc
4B-	.	.	.
1c	.	.	.
.	.	2f#i	2a
=108	=108.	=108	=108
1d	[0G	1g	1b-
2B-	.	1d	1r
2G	.	.	.
=109.	=109	=109.	=109.
2.B-	0G_	1r	1dd
4c	.	.	.
1d	.	1d	2b-
.	.	.	2g
=110.	=110.	=110.	=110.
1G	0G]	2B-	2.b-
.	.	2G	.
.	.	.	4cc
1r	.	2.B-	1dd
.	.	4c	.
=111	=111	=111	=111
1G	0r	1d	2g
.	.	.	2.b-
1E	.	2G	.
.	.	.	4a
.	.	2B-	2g
=112.	=112.	=112.	=112.
2F	0r	2A	1f
2D	.	1d	.
2G	.	.	2b-
2A	.	2c	[y2a
=113.	=113	=113.	=113.
2F	0r	2d	2a]yy
2D	.	2f	1dd
1A	.	1e	.
.	.	.	2cc#i
=114	=114.	=114	=114
1D	0r	2d	2.dd
.	.	1d	.
.	.	.	4cc
2G	.	.	2b-
2E	.	4c	4a
.	.	4B-	4g
=115.	=115	=115.	=115.
2F	0r	2A	2f
1G	.	2.d	2.b-
.	.	4e	4cc
2F	.	[y2f	[y2dd
=116.	=116.	=116.	=116.
2D	0r	2f]yy	2dd]yy
2E	.	2d	1b-
1F	.	1c	.
.	.	.	2a
=117	=117	=117	=117
0BB-	0d	1.B-	2.b-
.	.	.	4a
.	.	.	2f
.	.	2G	[y2g
=118.	=118.	=118.	=118.
0r	0d	1G	2g]yy
.	.	.	2f
.	.	1B-	1d
=119.	=119	=119.	=119.
0E-	0G	0c	1r
.	.	.	1g
=120	=120.	=120	=120
1.D	0r	3%4d	1.f
.	.	3c	.
2E	.	.	2g
.	.	3B-	.
=121.	=121	=121.	=121.
2F	0d	2A	2a
1G	.	2G	1b-
.	.	1B-	.
2F	.	.	4a
.	.	.	4g
=122.	=122.	=122.	=122.
2.D	0d	1A	2.f
4E	.	.	4g
2F	.	1r	2a
[2G	.	.	[2b-
=123	=123	=123	=123
2G]	0d	1r	4b-]
.	.	.	4a
2A	.	.	2a
2.B-	.	2.d	2.g
4A	.	4e	4f
=124.	=124.	=124.	=124.
2F	[0c	2f	0a
1A	.	2e	.
.	.	2f	.
4G	.	2a	.
4F	.	.	.
=125.	=125	=125.	=125.
2.E	0c]	1g	1r
4D	.	.	.
1F	.	1f	1a
=126	=126.	=126	=126
2BB-	0B-	2d	1b-
2.E-	.	2.g	.
.	.	.	1g
4D	.	4f	.
2E-i	.	4e-i	.
.	.	4d	.
=127.	=127	=127.	=127.
2F	[y0A	2.c	2.a
4E-i	.	.	.
4D	.	4d	4b-
2C	.	2e	2cc
[y2D	.	2f	[y2a
=128.	=128.	=128.	=128.
2D]yy	0A]yy	1e	4a]yy
.	.	.	4g
2C	.	.	2e
1D	.	[1d	1f#i
=129	=129	=129	=129
1r	[0Gl	2d]	[0g
.	.	2B-	.
1G	.	1e-i	.
=130.	=130.	=130.	=130.
0Gl	0G]	0dl	0gl
!!LO:LB:i:g=z
*	*rscale:1	*	*
=131||	=131||	=131||	=131||
*>C	*>C	*>C	*>C
*clefF4	*clefGv2	*clefGv2	*clefG2
*k[b-]	*k[b-]	*k[b-]	*k[b-]
*M3/1	*M3/1	*M3/1	*M3/1
*met(C3)	*met(C3)	*met(C3)	*met(C3)
!!section: Tu solus
!!!OMD: Tu solus
[0G	1.r	[0d	1g
.	.	.	2a
.	1G	.	1b-
2G]	.	2d]	.
[2E	2G	2e	[2g
=132	=132	=132	=132
2E]	1c	2g	2g]
1F	.	2.f	1a
.	2c	.	.
.	.	4e	.
2G	2B-	1d	2.g
2A	1A	.	.
.	.	.	4e
2c	.	2c	2f#i
=133	=133	=133	=133
2B-	2G	2r	1.g
2G	1r	2d	.
2d	.	2d	.
2d	2d	2G	2r
[1G	2d	2.B-	2dd
.	2G	.	2dd
.	.	4c	.
=134	=134	=134	=134
1G]	2r	2.d	1g
.	2d	.	.
.	.	4e	.
2D	2d	2f	2a
2G	2d	2g	2b-
2A	1c	2e	2.a
2F	.	2f	.
.	.	.	4g
=135	=135	=135	=135
2G	2B-	2.d	1g
1D	1A	.	.
.	.	4c	.
.	.	2A	2f#i
2d	1.G	1.B-	[1.g
2d	.	.	.
2d	.	.	.
=136	=136	=136	=136
1.G	2d	1.r	1.g]
.	2d	.	.
.	2d	.	.
1B-	1.G	2d	1.r
.	.	2d	.
2G	.	2d	.
=137	=137	=137	=137
2.B-	0.r	1.G	2dd
.	.	.	2dd
4c	.	.	.
2d	.	.	2dd
2e-i	.	1g	2g
1d	.	.	1a
.	.	2f#i	.
=138	=138	=138	=138
1.G	1g	1g	1.b-
.	2g	1d	.
1.D	1f	.	1.a
.	.	1A	.
.	2f	.	.
=139	=139	=139	=139
1.r	1.g	1G	1b-
.	.	2B-	2g
2D	1.d	2A	2f
2F	.	1d	2a
2G	.	.	2b-
=140	=140	=140	=140
1A	1.r	2c	2.cc
.	.	2.f	.
.	.	.	4b-
2F	.	.	4a
.	.	4e	4g
2G	1g	1d	1.g
1E	.	.	.
.	2g	2c	.
=141	=141	=141	=141
1.D	1f	2.d	1r
.	.	4c	.
.	2f	2A	2a
1r	1g	1.G	1b-
2G	2g	.	2b-
=142	=142	=142	=142
1G	1.d	1.r	1b-
2F	.	.	2a
2.B-	1r	1d	2f
.	.	.	2g
4A	.	.	.
2G	2g	2e	2b-
=143	=143	=143	=143
1F	1a	1f	1a
2G	2g	1d	2dd
2D	2f	.	1dd
1A	1e	2r	.
.	.	2e	2cc#i
=144	=144	=144	=144
2.D	1.d	2f	1.dd
.	.	2.a	.
4E	.	.	.
2F	.	.	.
.	.	4g	.
2G	1.r	1g	2b-
1D	.	.	1a
.	.	2f#i	.
=145	=145	=145	=145
1.E	1G	1.g	0.g
.	2G	.	.
1.C	1c	1.e	.
.	2c	.	.
=146	=146	=146	=146
1.D	2B-	1f	1r
.	1A	.	.
.	.	2f	2a
2r	2G	2g	2.b-
2G	1r	2d	.
.	.	.	4a
2d	.	2d	2a
=147	=147	=147	=147
2d	2d	2G	2g
0G	2d	2.B-	2dd
.	2G	.	2dd
.	.	4c	.
.	2r	2.d	1g
.	2d	.	.
.	.	4e	.
2D	2d	2f	2a
=148	=148	=148	=148
2G	2d	1g	2b-
2E	1c	.	4cc
.	.	.	4b-
2F	.	2f	4a
.	.	.	4g
2G	2B-	1d	2.g
1D	1A	.	.
.	.	.	4f#i
.	.	2d	4f#i
.	.	.	4e
=149	=149	=149	=149
0.Gl	0.Gl	1e-i	0.gl
.	.	2d	.
.	.	1.dl	.
==	==	==	==
*-	*-	*-	*-
!!!RDF**kern: l=long note in original notation
!!!RDF**kern: i=editorial accidental
!!!RDF**kern: V=start of tuplet marker
!!!RDF**kern: Z=end of tuplet marker
!!!ENC:	Rodin, Watson (10/19/2012)
!!!END:	2012/11/19/
!!!EED:	Jesse Rodin
!!!EEV:	2012/12/21/
!!!ONB:	Translated from MusicXML and edited on 2012/12/21/ by Craig Sapp
!!muse2ps: T^@{OPR}^u^@{ONM}{. }@{OTL}^C^@{COM}^i2I150v85,85,85,150Q8
